X: 50
T:Funs All Over (Wagoner's)
M:4/4
L:1/8
R:Reel
K:C
e6 e|ed c2 A2 G2|g6 g|ga bg a2 g2|e6 e|!
ed c2 A2 G2|g2 ^fg a2 g2|c3 c c4:|C2 CC E2 G2|!
c2 cc A2 G2|B4 B2 B2|B2 B2 A2 G2|C2 CC E2 G2|!
c2 cc A2 G2|g2 ^fg a2 g2|c3 c c4:|
